packages/axiom-materials/src/icon_svgs/qq.svg

<svg height="16" viewBox="0 0 16 16" width="16" xmlns="http://www.w3.org/2000/svg"><g fill="none" transform="translate(1)"><path d="m6.72584842 15.8118523c-1.39323766 0-2.67219715-.4663394-3.49560028-1.1627915-.41820474.1249501-.9531333.3259374-1.29063187.5752817-.28903039.2132155-.25290159.4306553-.20087612.5183649.22855634.3857444 3.92114195.2463428 4.98710827.126284zm0 0c1.39345999 0 2.67230832-.4663394 3.49582258-1.1627915.4179824.1249501.9530222.3259374 1.2906319.5752817.2888081.2132155.2527904.4306553.2006538.5183649-.2285564.3857444-3.92103079.2463428-4.98710828.126284z" fill="#faab07"/><path d="m6.7339635 7.4613196c2.30090427-.01556317 4.1449182-.46100347 4.7697797-.63175374.1489618-.04079775.2285563-.1138335.2285563-.1138335.0005558-.02101029.0094491-.37462786.0094491-.55693934 0-3.07194842-1.4500433-6.15868185-5.01623368-6.15879302-3.56619039.00011117-5.01634481 3.08695577-5.01634481 6.15868185 0 .18253381.00889325.53604022.00956024.55693934 0 0 .06480951.0683668.18342313.10149413.57694914.16052304 2.45564669.62808528 4.8148017.64420428zm6.2525056 2.5590306c-.1426254-.45900246-.3372763-.99426451-.5344839-1.50829395 0 0-.1133889-.01400686-.1708615.00255681-1.7689771.51391827-3.91324915.8415231-5.5471602.82173564h-.01700832c-1.62479548.01945397-3.75450481-.30426007-5.51759021-.8131759-.06736632-.01945397-.2003203-.01111655-.2003203-.01111655-.19720766.51402944-.39185851 1.04940266-.53448389 1.50829395-.68022192 2.1888494-.45978066 3.0946262-.29203187 3.1148584.36006517.0435768 1.40135275-1.6475845 1.40135275-1.6475845 0 1.7185081 1.55153738 4.3571332 5.10449908 4.3813673h.09426837c3.55285049-.0242341 5.10438789-2.6628592 5.10438789-4.3813673 0 0 1.0413988 1.6911613 1.4014639 1.6476956.1676377-.0203433.3880789-.9262312-.2920318-3.1149695" fill="#000"/><path d="m5.45656033 4.53822184c-.48379241.02189961-.89710587-.52914795-.92311861-1.22982433-.02623507-.7008987.34439083-1.28685224.82818324-1.30875185.48323659-.02167728.89643888.52914795.92267395 1.23004665.0264574.70100987-.34427966 1.28696341-.82773858 1.30852953m3.46091663-1.22982433c-.02590157.70056521-.43921503 1.25172394-.92300745 1.22982433-.48357008-.02167728-.85419597-.60751966-.82773858-1.30841836.02623507-.7008987.4393262-1.25172393.92267395-1.23015782.48379241.02189961.85441831.60785315.82807208 1.30875185" fill="#fff"/><path d="m6.05118478 3.31873591c.02212194.27680218-.12973018.52270035-.33861022.54949124-.20932471.02690206-.39663863-.17564154-.41887174-.45244373-.02189961-.27702451.12973018-.52292268.33827673-.54960241.2096582-.02712439.39730562.17564155.41920523.45244373m1.32909515.09260089c.04279873-.07659305.33394127-.47934579.93679197-.33271844.15841089.03857444.23166898.09526886.24712099.11750197.02278893.032905.02912537.07981685.00589177.14295888-.0458002.12517239-.14040207.12172626-.19276104.09726984-.03390549-.01578551-.45377772-.29570033-.84063378.12194859-.02667973.02856955-.07425858.03846328-.11928062.00444662-.04524438-.03423898-.06380902-.10338394-.03712929-.15140746" fill="#000"/><path d="m6.7339635 9.23563272h-.01700832c-1.1112107.01333987-2.458537-.1338433-3.76339806-.39108035-.11161019.64676109-.17897651 1.45982583-.12117043 2.42930043.14629384 2.4504219 1.60156188 3.9908428 3.84788386 4.0130759h.09115574c2.24643315-.0222331 3.70159001-1.562654 3.84810621-4.0130759.0578061-.9696969-.0096714-1.78253934-.1213928-2.4294116-1.30497221.25734822-2.652632.40464255-3.76406503.39108036" fill="#fff"/><path d="m3.56863603 9.03053231v2.41151399s1.10465193.2227757 2.21141601.0684779v-2.22431116c-.70112104-.03968609-1.45726901-.1280627-2.21141601-.25568073" fill="#eb1923"/><path d="m11.7322995 6.71573236s-2.14882982.6783321-4.998336.69756373h-.01700832c-2.84483723-.01912047-4.9908879-.69534042-4.99822483-.69756373l-.71968568 1.79621272c1.80010352.54271015 4.0309735.89243693 5.71791051.87209363h.01700832c1.68693701.0203433 3.9176958-.32938348 5.7180217-.87209363z" fill="#eb1923"/><path d="m6.77946259 6.56910501c1.65685425 0 3.10577512-.79296264 3.10577512-1.06910501s-1.44892087-.57759007-3.10577512-.57759007-3.10577512.3014477-3.10577512.57759007 1.44892087 1.06910501 3.10577512 1.06910501z" fill="#faab07"/></g></svg>

<?xml version="1.0" encoding="UTF-8"?>
<svg width="16px" height="16px" viewBox="0 0 16 16" version="1.1" xmlns="http://www.w3.org/2000/svg" xmlns:xlink="http://www.w3.org/1999/xlink">

    <g id="Symbols/Social-Icons/Colour/QQ" stroke="none" stroke-width="1" fill="none" fill-rule="evenodd">
        <g id="Tencent-QQ" transform="translate(1.000000, 0.000000)" fill-rule="nonzero">
            <path d="M6.72584842,15.8118523 C5.33261076,15.8118523 4.05365127,15.3455129 3.23024814,14.6490608 C2.8120434,14.7740109 2.27711484,14.9749982 1.93961627,15.2243425 C1.65058588,15.437558 1.68671468,15.6549978 1.73874015,15.7427074 C1.96729649,16.1284518 5.6598821,15.9890502 6.72584842,15.8689914 L6.72584842,15.8118523 Z M6.72584842,15.8118523 C8.11930841,15.8118523 9.39815674,15.3455129 10.221671,14.6490608 C10.6396534,14.7740109 11.1746932,14.9749982 11.5123029,15.2243425 C11.801111,15.437558 11.7650933,15.6549978 11.7129567,15.7427074 C11.4844003,16.1284518 7.79192591,15.9890502 6.72584842,15.8689914 L6.72584842,15.8118523 Z" id="Shape" fill="#FAAB07"></path>
            <path d="M6.7339635,7.4613196 C9.03486777,7.44575643 10.8788817,7.00031613 11.5037432,6.82956586 C11.652705,6.78876811 11.7322995,6.71573236 11.7322995,6.71573236 C11.7328553,6.69472207 11.7417486,6.3411045 11.7417486,6.15879302 C11.7417486,3.0868446 10.2917053,0.000111165536 6.72551492,0 C3.15932453,0.000111165536 1.70917011,3.08695577 1.70917011,6.15868185 C1.70917011,6.34121566 1.71806336,6.69472207 1.71873035,6.71562119 C1.71873035,6.71562119 1.78353986,6.78398799 1.90215348,6.81711532 C2.47910262,6.97763836 4.35780017,7.4452006 6.71695518,7.4613196 L6.7339635,7.4613196 Z M12.9864691,10.0203502 C12.8438437,9.56134774 12.6491928,9.02608569 12.4519852,8.51205625 C12.4519852,8.51205625 12.3385963,8.49804939 12.2811237,8.51461306 C10.5121466,9.02853133 8.36787455,9.35613616 6.7339635,9.3363487 L6.71695518,9.3363487 C5.0921597,9.35580267 2.96245037,9.03208863 1.19936497,8.5231728 C1.13199865,8.50371883 0.999044671,8.51205625 0.999044671,8.51205625 C0.80183701,9.02608569 0.607186157,9.56145891 0.464560775,10.0203502 C-0.21566114,12.2091996 0.00478011804,13.1149764 0.172528912,13.1352086 C0.532594083,13.1787854 1.57388166,11.4876241 1.57388166,11.4876241 C1.57388166,13.2061322 3.12541904,15.8447573 6.67838074,15.8689914 L6.77264911,15.8689914 C10.3254996,15.8447573 11.877037,13.2061322 11.877037,11.4876241 C11.877037,11.4876241 12.9184358,13.1787854 13.2785009,13.1353197 C13.4461386,13.1149764 13.6665798,12.2090885 12.9864691,10.0203502" id="Shape" fill="#000000"></path>
            <path d="M5.45656033,4.53822184 C4.97276792,4.56012145 4.55945446,4.00907389 4.53344172,3.30839751 C4.50720665,2.60749881 4.87783255,2.02154527 5.36162496,1.99964566 C5.84486155,1.97796838 6.25806384,2.52879361 6.28429891,3.22969231 C6.31075631,3.93070218 5.94001925,4.51665572 5.45656033,4.53822184 M8.91747696,3.30839751 C8.89157539,4.00896272 8.47826193,4.56012145 7.99446951,4.53822184 C7.51089943,4.51654456 7.14027354,3.93070218 7.16673093,3.22980348 C7.192966,2.52890478 7.60605713,1.97807955 8.08940488,1.99964566 C8.57319729,2.02154527 8.94382319,2.60749881 8.91747696,3.30839751" id="Shape" fill="#FFFFFF"></path>
            <path d="M6.05118478,3.31873591 C6.07330672,3.59553809 5.9214546,3.84143626 5.71257456,3.86822715 C5.50324985,3.89512921 5.31593593,3.69258561 5.29370282,3.41578342 C5.27180321,3.13875891 5.423433,2.89286074 5.63197955,2.86618101 C5.84163775,2.83905662 6.02928517,3.04182256 6.05118478,3.31862474 M7.38027993,3.41122563 C7.42307866,3.33463258 7.7142212,2.93187984 8.3170719,3.07850719 C8.47548279,3.11708163 8.54874088,3.17377605 8.56419289,3.19600916 C8.58698182,3.22891416 8.59331826,3.27582601 8.57008466,3.33896804 C8.52428446,3.46414043 8.42968259,3.4606943 8.37732362,3.43623788 C8.34341813,3.42045237 7.9235459,3.14053755 7.53668984,3.55818647 C7.51001011,3.58675602 7.46243126,3.59664975 7.41740922,3.56263309 C7.37216484,3.52839411 7.3536002,3.45924915 7.38027993,3.41122563" id="Shape" fill="#000000"></path>
            <path d="M6.7339635,9.23563272 L6.71695518,9.23563272 C5.60574448,9.24897259 4.25841818,9.10178942 2.95355712,8.84455237 C2.84194693,9.49131346 2.77458061,10.3043782 2.83238669,11.2738528 C2.97868053,13.7242747 4.43394857,15.2646956 6.68027055,15.2869287 L6.77142629,15.2869287 C9.01785944,15.2646956 10.4730163,13.7242747 10.6195325,11.2738528 C10.6773386,10.3041559 10.6098611,9.49131346 10.4981397,8.8444412 C9.19316749,9.10178942 7.8455077,9.24908375 6.73407467,9.23552156" id="Path" fill="#FFFFFF"></path>
            <path d="M3.56863603,9.03053231 L3.56863603,11.4420463 C3.56863603,11.4420463 4.67328796,11.664822 5.78005204,11.5105242 L5.78005204,9.28621304 C5.078931,9.24652695 4.32278303,9.15815034 3.56863603,9.03053231" id="Path" fill="#EB1923"></path>
            <path d="M11.7322995,6.71573236 C11.7322995,6.71573236 9.58346968,7.39406446 6.7339635,7.41329609 L6.71695518,7.41329609 C3.87211795,7.39417562 1.72606728,6.71795567 1.71873035,6.71573236 L0.999044671,8.51194508 C2.79914819,9.05465523 5.03001817,9.40438201 6.71695518,9.38403871 L6.7339635,9.38403871 C8.42090051,9.40438201 10.6516593,9.05465523 12.4519852,8.51194508 L11.7322995,6.71573236 Z" id="Path" fill="#EB1923"></path>
            <path d="M6.77946259,6.56910501 C8.43631684,6.56910501 9.88523771,5.77614237 9.88523771,5.5 C9.88523771,5.22385763 8.43631684,4.92240993 6.77946259,4.92240993 C5.12260834,4.92240993 3.67368747,5.22385763 3.67368747,5.5 C3.67368747,5.77614237 5.12260834,6.56910501 6.77946259,6.56910501 Z" id="Oval" fill="#FAAB07"></path>
        </g>
    </g>
</svg>
